X:295
T: Ballinahulla #2
S: "Where's the Crack v/1" (DJ Taylor)
Z: B.Black
L: 1/8
M: 2/4
R: polka
K: G
G>A GB | dB AB | c/d/c/B/ cA | ed Bd |
GA GB | dB AB | c/d/c/B/ cA |1 B/A/G Gd :|2\
B/A/G G2 ||
g2 fa/f/ | ed Bd | e/g/e/d/ cA | ed B/A/G |
gG fG | eG dB | c/d/c/B/ cA |1 B/A/G G2 :|2\
B/A/G Gd ||
